X: 13100
T: Fire-Haired Boy, The
R: reel
M: 4/4
K: Dmajor
B|:ABAG FGAB|=c2dc BGGB|ABAG FGAg|1 fdec Addc:|2 fdec Adde||
f2df efde|f2df ecAe|f2df efde|fdec Adde|
f2df efde|f2df ecA^G|ABcd efge|ageg fdd2|

